X: 175
T: Gornoselsko
O: Macedonia
F: http://www.youtube.com/watch?v=HpK1_4Un54Q
M: 13/8
L: 1/8
Q: 1/4=120
K: Cm clef=treble
|:G,=B,CD/C/D2=AGF=EFGz    |\
  F,=A,_B,C2B,C/A,/_EDCDB,z|\
  GABcBAGFEDEF2            |\
  GA/G/FGEFDC4z2           :|
|:GFGEFDEC2A,B,CD          |\
  GFGEFDEC2A,B,C2          :|\
|:A,B,CDECB,DC4F           |\
  A,B,CDECB,DC4z           :|



